**kern
*staff1
=1-
*clefG2
*k[]
*F:
*M4/4
1r
=2
1r
=3
1r
=4
2r
4r
8r
8F/
=5
8B-/L
8d/
8c/
8B-/J
8e-/L
8c#/
8d/
8f/J
=6
4r
8r
8e-/
8r
8f/
4e-/
=7
8r
8d/L
8e-/
8d/J
8c/L
8A/
8B-/
8d/J
=8
8c/L
8G/
8B-/
8A/J
4r
8r
[8B-/
=9
4B-/]
8G/L
8B-/J
8d/L
8B-/J
8r
[8e/
=10
8e/L]
[8e-/
8e-/]
[8G-/J
8G-/L]
8B-/
8c/
8d/J
=11
4f/
8r
8B/
8r
4a-/
8f#/
=12
8g/L
8e-/
8B-/
8G/J
8d/L
8f/J
8r
8F/
=13
12e-/L
12f/
12e-/J
8d/L
8f/J
8r
8d/L
8e-/
8G/J
=14:|!
8c/L
8G/
8B-/
8c/J
4r
8r
[8f#/
=15
4f#/]
8g/L
8g#/J
8a/L
8f#/
8gn/
8a/J
=16||
8f#/L
8d/J
4r
4r
8r
8e/
=17
8f/L
8e/
8d/
8B/J
8e/L
8d/
8B/
8A/J
=18
4r
8r
[8a/
8a/]
4a/
[8a/
=19
8a/L]
8g/
8e/
8d/J
2r
=20
1r
=21
1r
=22
1r
=23
1r
=24
1r
=25
1r
=26
1r
=27
1r
=28
1r
=29
1r
=30
1r
=31
1r
=32
1r
=33
1r
=34
1r
=35
1r
=36
1r
=37
1r
=38
1r
=39
1r
=40
1r
=41
1r
=42
1r
=43
1r
=44
1r
=45
1r
=46
1r
=47
1r
=48
1r
=49
1r
=50
1r
=51
1r
=52
1r
=53
1r
=54
1r
=55
1r
=56
1r
=57
1r
=58
1r
=59
1r
=60
1r
=61
1r
=62
1r
=63
1r
=64
1r
=65
1r
=66
1r
==
*-
